src/catppuccin-macchiato-green-cursors/pencil.svg

<?xml version="1.0" encoding="UTF-8" standalone="no"?>
<svg
   id="svg2"
   width="32"
   height="32"
   version="1.1"
   sodipodi:docname="pencil.svg"
   inkscape:version="1.1.2 (0a00cf5339, 2022-02-04)"
   xmlns:inkscape="http://www.inkscape.org/namespaces/inkscape"
   xmlns:sodipodi="http://sodipodi.sourceforge.net/DTD/sodipodi-0.dtd"
   xmlns="http://www.w3.org/2000/svg"
   xmlns:svg="http://www.w3.org/2000/svg">
  <sodipodi:namedview
     id="namedview24097"
     pagecolor="#ffffff"
     bordercolor="#666666"
     borderopacity="1.0"
     inkscape:pageshadow="2"
     inkscape:pageopacity="0.0"
     inkscape:pagecheckerboard="0"
     showgrid="false"
     inkscape:zoom="25.96875"
     inkscape:cx="16.019254"
     inkscape:cy="16.019254"
     inkscape:window-width="1896"
     inkscape:window-height="1020"
     inkscape:window-x="9"
     inkscape:window-y="45"
     inkscape:window-maximized="1"
     inkscape:current-layer="svg2" />
  <defs
     id="defs4">
    <filter
       id="filter874"
       style="color-interpolation-filters:sRGB"
       width="1.12"
       height="1.12"
       x="-.06"
       y="-.06">
      <feGaussianBlur
         id="feGaussianBlur876"
         stdDeviation=".55" />
    </filter>
    <filter
       id="filter826"
       style="color-interpolation-filters:sRGB"
       width="1.1440051"
       height="1.1440032"
       x="-0.072002567"
       y="-0.072001624">
      <feGaussianBlur
         id="feGaussianBlur828"
         stdDeviation=".66" />
    </filter>
  </defs>
  <path
     id="path819"
     style="color:#000000;font-style:normal;font-variant:normal;font-weight:normal;font-stretch:normal;font-size:medium;line-height:normal;font-family:sans-serif;font-variant-ligatures:normal;font-variant-position:normal;font-variant-caps:normal;font-variant-numeric:normal;font-variant-alternates:normal;font-feature-settings:normal;text-indent:0;text-align:start;text-decoration:none;text-decoration-line:none;text-decoration-style:solid;text-decoration-color:#000000;letter-spacing:normal;word-spacing:normal;text-transform:none;writing-mode:lr-tb;direction:ltr;text-orientation:mixed;dominant-baseline:auto;baseline-shift:baseline;text-anchor:start;white-space:normal;shape-padding:0;clip-rule:nonzero;display:inline;overflow:visible;visibility:visible;opacity:0.2;isolation:auto;mix-blend-mode:normal;color-interpolation:sRGB;color-interpolation-filters:linearRGB;solid-color:#000000;solid-opacity:1;vector-effect:none;fill:#000000;fill-opacity:1;fill-rule:nonzero;stroke:none;stroke-width:2.000036;stroke-linecap:round;stroke-linejoin:round;stroke-miterlimit:4;stroke-dasharray:none;stroke-dashoffset:0;stroke-opacity:1;color-rendering:auto;image-rendering:auto;shape-rendering:auto;text-rendering:auto;enable-background:accumulate;filter:url(#filter826)"
     d="M 22.5625 5.5 A 1.000136 1.0001 0 0 0 21.871094 5.7929688 L 19.126953 8.5371094 A 1.000136 1.0001 0 0 0 18.853516 9.0488281 A 1.000136 1.0001 0 0 0 18.341797 9.3222656 L 7.3613281 20.302734 A 1.000136 1.0001 0 0 0 7.1074219 20.734375 L 5.5390625 26.224609 A 1.000136 1.0001 0 0 0 6.7753906 27.460938 L 12.265625 25.892578 A 1.000136 1.0001 0 0 0 12.697266 25.638672 L 23.677734 14.658203 A 1.000136 1.0001 0 0 0 23.951172 14.146484 A 1.000136 1.0001 0 0 0 24.462891 13.873047 L 27.207031 11.128906 A 1.000136 1.0001 0 0 0 27.207031 9.7148438 L 23.285156 5.7929688 A 1.000136 1.0001 0 0 0 22.5625 5.5 z" />
  <path
     id="path824"
     style="color:#000000;font-style:normal;font-variant:normal;font-weight:normal;font-stretch:normal;font-size:medium;line-height:normal;font-family:sans-serif;font-variant-ligatures:normal;font-variant-position:normal;font-variant-caps:normal;font-variant-numeric:normal;font-variant-alternates:normal;font-feature-settings:normal;text-indent:0;text-align:start;text-decoration:none;text-decoration-line:none;text-decoration-style:solid;text-decoration-color:#000000;letter-spacing:normal;word-spacing:normal;text-transform:none;writing-mode:lr-tb;direction:ltr;text-orientation:mixed;dominant-baseline:auto;baseline-shift:baseline;text-anchor:start;white-space:normal;shape-padding:0;clip-rule:nonzero;display:inline;overflow:visible;visibility:visible;opacity:1;isolation:auto;mix-blend-mode:normal;color-interpolation:sRGB;color-interpolation-filters:linearRGB;solid-color:#000000;solid-opacity:1;vector-effect:none;fill:#24273A;fill-opacity:1;fill-rule:nonzero;stroke:none;stroke-width:2.000036;stroke-linecap:round;stroke-linejoin:round;stroke-miterlimit:4;stroke-dasharray:none;stroke-dashoffset:0;stroke-opacity:1;color-rendering:auto;image-rendering:auto;shape-rendering:auto;text-rendering:auto;enable-background:accumulate"
     d="M 22.0625 5 A 1.000136 1.0001 0 0 0 21.371094 5.2929688 L 18.626953 8.0371094 A 1.000136 1.0001 0 0 0 18.353516 8.5488281 A 1.000136 1.0001 0 0 0 17.841797 8.8222656 L 6.8613281 19.802734 A 1.000136 1.0001 0 0 0 6.6074219 20.234375 L 5.0390625 25.724609 A 1.000136 1.0001 0 0 0 6.2753906 26.960938 L 11.765625 25.392578 A 1.000136 1.0001 0 0 0 12.197266 25.138672 L 23.177734 14.158203 A 1.000136 1.0001 0 0 0 23.451172 13.646484 A 1.000136 1.0001 0 0 0 23.962891 13.373047 L 26.707031 10.628906 A 1.000136 1.0001 0 0 0 26.707031 9.2148438 L 22.785156 5.2929688 A 1.000136 1.0001 0 0 0 22.0625 5 z" />
  <path
     id="path825"
     style="opacity:1;fill:#A6DA95;fill-opacity:1;stroke:none;stroke-width:2.5112102;stroke-linecap:round;stroke-linejoin:round;stroke-miterlimit:4;stroke-dasharray:none;stroke-opacity:1"
     d="M 22.078125 6 L 19.333984 8.7441406 L 23.255859 12.666016 L 26 9.921875 L 22.078125 6 z M 18.548828 9.5292969 L 7.5683594 20.509766 L 6 26 L 11.490234 24.431641 L 22.470703 13.451172 L 18.548828 9.5292969 z" />
</svg>

<svg xmlns="http://www.w3.org/2000/svg" width="32" height="32">
    <defs>
        <filter id="a" width="1.144" height="1.144" x="-.072" y="-.072" style="color-interpolation-filters:sRGB">
            <feGaussianBlur stdDeviation=".66"/>
        </filter>
    </defs>
    <path d="M22.563 5.5a1 1 0 0 0-.692.293l-2.744 2.744a1 1 0 0 0-.273.512 1 1 0 0 0-.512.273l-10.98 10.98a1 1 0 0 0-.255.432l-1.568 5.49a1 1 0 0 0 1.236 1.237l5.49-1.568a1 1 0 0 0 .432-.254l10.98-10.98a1 1 0 0 0 .274-.513 1 1 0 0 0 .512-.273l2.744-2.744a1 1 0 0 0 0-1.414l-3.922-3.922a1 1 0 0 0-.723-.293" style="color:#000;font-style:normal;font-variant:normal;font-weight:400;font-stretch:normal;font-size:medium;line-height:normal;font-family:sans-serif;font-variant-ligatures:normal;font-variant-position:normal;font-variant-caps:normal;font-variant-numeric:normal;font-variant-alternates:normal;font-feature-settings:normal;text-indent:0;text-align:start;text-decoration:none;text-decoration-line:none;text-decoration-style:solid;text-decoration-color:#000;letter-spacing:normal;word-spacing:normal;text-transform:none;writing-mode:lr-tb;direction:ltr;text-orientation:mixed;dominant-baseline:auto;baseline-shift:baseline;text-anchor:start;white-space:normal;shape-padding:0;clip-rule:nonzero;display:inline;overflow:visible;visibility:visible;opacity:.2;isolation:auto;mix-blend-mode:normal;color-interpolation:sRGB;color-interpolation-filters:linearRGB;solid-color:#000;solid-opacity:1;vector-effect:none;fill:#000;fill-opacity:1;fill-rule:nonzero;stroke:none;stroke-width:2.000036;stroke-linecap:round;stroke-linejoin:round;stroke-miterlimit:4;stroke-dasharray:none;stroke-dashoffset:0;stroke-opacity:1;color-rendering:auto;image-rendering:auto;shape-rendering:auto;text-rendering:auto;enable-background:accumulate;filter:url(#a)"/>
    <path d="M22.063 5a1 1 0 0 0-.692.293l-2.744 2.744a1 1 0 0 0-.273.512 1 1 0 0 0-.512.273l-10.98 10.98a1 1 0 0 0-.255.432l-1.568 5.49a1 1 0 0 0 1.236 1.237l5.49-1.568a1 1 0 0 0 .432-.254l10.98-10.98a1 1 0 0 0 .274-.513 1 1 0 0 0 .512-.273l2.744-2.744a1 1 0 0 0 0-1.414l-3.922-3.922A1 1 0 0 0 22.062 5" style="color:#000;font-style:normal;font-variant:normal;font-weight:400;font-stretch:normal;font-size:medium;line-height:normal;font-family:sans-serif;font-variant-ligatures:normal;font-variant-position:normal;font-variant-caps:normal;font-variant-numeric:normal;font-variant-alternates:normal;font-feature-settings:normal;text-indent:0;text-align:start;text-decoration:none;text-decoration-line:none;text-decoration-style:solid;text-decoration-color:#000;letter-spacing:normal;word-spacing:normal;text-transform:none;writing-mode:lr-tb;direction:ltr;text-orientation:mixed;dominant-baseline:auto;baseline-shift:baseline;text-anchor:start;white-space:normal;shape-padding:0;clip-rule:nonzero;display:inline;overflow:visible;visibility:visible;opacity:1;isolation:auto;mix-blend-mode:normal;color-interpolation:sRGB;color-interpolation-filters:linearRGB;solid-color:#000;solid-opacity:1;vector-effect:none;fill:#24273a;fill-opacity:1;fill-rule:nonzero;stroke:none;stroke-width:2.000036;stroke-linecap:round;stroke-linejoin:round;stroke-miterlimit:4;stroke-dasharray:none;stroke-dashoffset:0;stroke-opacity:1;color-rendering:auto;image-rendering:auto;shape-rendering:auto;text-rendering:auto;enable-background:accumulate"/>
    <path d="m22.078 6-2.744 2.744 3.922 3.922L26 9.922zm-3.53 3.53L7.569 20.51 6 26l5.49-1.568 10.98-10.98z" style="opacity:1;fill:#a6da95;fill-opacity:1;stroke:none;stroke-width:2.5112102;stroke-linecap:round;stroke-linejoin:round;stroke-miterlimit:4;stroke-dasharray:none;stroke-opacity:1"/>
</svg>
